svgs/light/bring-forward.svg

<svg xmlns="http://www.w3.org/2000/svg" viewBox="0 0 512 512"><!--! Font Awesome Pro 6.6.0 by @fontawesome - https://fontawesome.com License - https://fontawesome.com/license (Commercial License) Copyright 2024 Fonticons, Inc. --><path d="M224 480l224 0c17.7 0 32-14.3 32-32l0-224c0-17.7-14.3-32-32-32l-64 0 0-32 64 0c35.3 0 64 28.7 64 64l0 224c0 35.3-28.7 64-64 64l-224 0c-35.3 0-64-28.7-64-64l0-64 32 0 0 64c0 17.7 14.3 32 32 32zM64 320l224 0c17.7 0 32-14.3 32-32l0-224c0-17.7-14.3-32-32-32L64 32C46.3 32 32 46.3 32 64l0 224c0 17.7 14.3 32 32 32zm224 32L64 352c-35.3 0-64-28.7-64-64L0 64C0 28.7 28.7 0 64 0L288 0c35.3 0 64 28.7 64 64l0 224c0 35.3-28.7 64-64 64zm-32-96l0-160L96 96l0 160 160 0zm32 0c0 17.7-14.3 32-32 32L96 288c-17.7 0-32-14.3-32-32L64 96c0-17.7 14.3-32 32-32l160 0c17.7 0 32 14.3 32 32l0 160z"/></svg>

<svg xmlns="http://www.w3.org/2000/svg" viewBox="0 0 512 512"><!--! Font Awesome Pro 6.4.0 by @fontawesome - https://fontawesome.com License - https://fontawesome.com/license (Commercial License) Copyright 2023 Fonticons, Inc. --><path d="M224 480H448c17.7 0 32-14.3 32-32V224c0-17.7-14.3-32-32-32H384V160h64c35.3 0 64 28.7 64 64V448c0 35.3-28.7 64-64 64H224c-35.3 0-64-28.7-64-64V384h32v64c0 17.7 14.3 32 32 32zM64 320H288c17.7 0 32-14.3 32-32V64c0-17.7-14.3-32-32-32H64C46.3 32 32 46.3 32 64V288c0 17.7 14.3 32 32 32zm224 32H64c-35.3 0-64-28.7-64-64V64C0 28.7 28.7 0 64 0H288c35.3 0 64 28.7 64 64V288c0 35.3-28.7 64-64 64zm-32-96V96H96V256H256zm32 0c0 17.7-14.3 32-32 32H96c-17.7 0-32-14.3-32-32V96c0-17.7 14.3-32 32-32H256c17.7 0 32 14.3 32 32V256z"/></svg>
